X: 1
T: Ali Pasha
O: Turkey
C: Trad.
Z:
P: ABB
M: 5/4
L: 1/4
%%MIDI channel 1
%%MIDI program 1 15
%%MIDI gchord ffcc2
%%MIDI chordprog 25
%%MIDI chordvol 55
%%MIDI bassprog 34
%%MIDI bassvol 55
Q: 1/4=150
P: A
K: C
 "C"GGc "C"c2 | c/2B/2 B/2A/2 c/2B/2 "G7"B2 |\
    B A G/2A/2 "F"A2 | A/2G/2 G/2F/2 A/2G/2 "C"G2 |
 "C"G G G/2c/2 "C"c2 | c/2B/2 B/2A/2 c/2B/2 "G7"B2 |\
    B/2c/2 A G/2A/2 "F"A2 | A/2G/2 G/2F/2 A/2G/2 "C"G2 |
P: B
 |: "F"FAA "G7"AG/2F/2 | "C"EGG "A7"GF/2E/2 |\
    "Dm"DFF "C"E/2D/2C | "G7"D E/2D/2 C/2B,/2 "C"C2 :|
